X:1
T:Title
%%score ( 1 2 ) { 3 | 4 }
L:1/8
Q:1/4=105
M:4/4
K:A
V:1 treble nm="Drawbar Organ, Soprano"
V:2 treble 
V:3 bass nm="Church Organ, A Song the World Is Singing"
V:4 bass 
V:1
 E>E [CA]2- [CA]GFE | FG A2 [Ec]4 | [EA]>[EA] [Ec]2 [FB]2 [EA]2 | G-[DG] [CA]6 | %4
w: By~Joseph~Lincoln~Hall * * * * * *||||
 [Ec]>[Ec] [EB]2- [EB][EB] [^DB]2 | [^DA]2 [EG]2 [EB]4 | E>E [EG]2 [CF]2 [B,E]2 | [B,^D]2 [B,E]6 | %8
w: ||||
 E>E [DB]2- [DB][C^A] [DB]2 | [^D=c]2 [E^c]2 [CA]4 | [CE]>E [DB]2- [DB][C^A] [DB]2 | %11
w: |||
 [^D=c]2 [E^c]6 | [Ac]>[Ac] [Ae]2- [Ae][Ae] [Gd]2 | [Gd]2 [Ac]2 [GB]2 A2 | %14
w: |||
 [FA]2 [EG]2- [EG][EG] [^DG]2 | [^DF]2 E6 | E>E E2- E/ z/ E G2 | B2 [EGBd]6 | [CEA]2 [CEA]4 [CE]2 | %19
w: |||||
 [CEA]2 [EGB]4 E2- | E2 [EAc]2 [EGB]2 [EAc]2 | [FBd]2 [EAc]4 [EGB]2 | [^DFA]2 [DFA]4 [EG]2 | %23
w: ||||
 [^DF]2 [EG]2 [DFA]2 [EGB]2 | [EAc]2 G2- [CG]2 [^DF]2- | [DF][B,E] [B,E]6 | z2 [ce]4 [Bd]2 | %27
w: ||||
 z2 .B2 z4 | z8 | [DB]2 [B,G]2- [B,G][A,F] [G,E]2 | %30
w: |||
 [EAce]2 [EAce][EAce] [EGBde][EGBde][EAce][EAce] | %31
w: |
 [EGBde][EGBde][EAce][EAce] [EAce][EAce][EAce][EAce] | %32
w: |
 [EAce][EAce][EAce][EAce] [EGBde][EGBde][EAce][EAce] | %33
w: |
 [EGBde][EGBde][EAce][EAce] [EAce][EAce][EGBde][EGBde] | z2 d2 c2 B2 | A2 G4 A2 | d2 z2 z4 | z8 | %38
w: |||||
 z8 |] %39
w: |
V:2
 x8 | x8 | x8 | .E2 z2 z4 | x8 | x8 | x8 | x8 | x8 | x8 | x8 | x8 | x8 | x8 | x8 | x8 | x8 | x8 | %18
 x8 | x8 | x8 | x8 | x8 | x8 | z2 E2 z4 | x8 | x8 | [Ac]2 d-[Ed-] [Fd-][Gd] [Ac]2- | %28
 [Ac]2 [GB]2 [^Ec]2 [FA]2 | x8 | x8 | x8 | x8 | x8 | [EAce][EAce][FB][FB] [EA][EA][EG][EG] | %35
 [^DF][DF][=DE][DE] [DE][DE][CE][CE] | [DFB][DFB] [EAc]4 [DEGB]2- | [DEGB][CEA] [CEA]6- | %38
 [CEA]2 z2 z4 |] %39
V:3
 E,>E, E,2- E,G,F,E, | F,G, A,2[K:treble] C4 | C>C C2 D2 C2 | B,2 A,6 | A,>A, B,2- B,B, B,2 | %5
 B,2 B,2 G,4 | G,>G, B,2 A,2 G,2 | F,A, G,6 | z2 G,2- G,=G, ^G,2- | G,2 A,2 A,4 | %10
 A,2 G,2- G,=G, ^G,2- | G,2 A,6 | E>E E2- EE E2 | E2 E4 E2 | C2[K:bass] B,2- B,B, B,2 | A,2 G,6 | %16
 E,>E, E,2- E,/ z/ E, G,2 | B,2 D6 | A,2 A,2 E,2 C,2 | A,,2 E,F, G,A,B,G, | F,E, A,2 G,2 A,2 | %21
 B,,D, E,2 F,2 G,2 | B,2 B,2 F,2 E,2 | B,,2 E,2 F,2 G,2 | A,2 B,4 A,2- | A,G, G,6 | z2 E,6- | %27
 E,6 A,2- | A,2 E,2 C,2 F,2 | B,,2 E,6 | A,2 A,2 G,2 A,2 | B,2 A,4 E,2 | C2 C2 B,2 C2 | D2 C4 B,2 | %34
 C2 D2 C2[K:bass] B,2 | A,2 G,F, E,D,C,C, | D,D, E,4 E,2- | E,A, A,6- | A,2 z2 z4 |] %39
V:4
 z2 A,,4 z2 | z4 A,4 | A,>A, A,2 D,2 E,2 | E,2 A,,6 | z2 G,2- G,G, F,2 | B,,2 E,2 E,4 | %6
 E,>E, E,2 A,,2 B,,2 | B,,2 E,6 | z2 E,6- | E,2 A,,2 A,,4 | A,,2 E,6- | E,2 A,,6 | %12
 A,>A,[K:treble] C2- CC B,2 | B,2[K:bass] A,2 B,2 C2 | F,2 B,,2- B,,B,, B,,2 | B,,2 E,6 | z8 | %17
 z2 [E,G,B,]6 | A,,2 A,,2 E,,2 C,,2 | A,,,2 E,,F,, G,,A,,B,,G,, | F,,E,, A,,2 G,,2 A,,2 | %21
 B,,,D,, E,,2 F,,2 G,,2 | B,,2 B,,2 F,,2 E,,2 | B,,,2 E,,2 F,,2 G,,2 | A,,2 B,,4 B,,2- | %25
 B,,E, E,6 | z2 E,,6- | E,,6 A,,2- | A,,2 E,,2 C,,2 F,,2 | B,,,2 E,,6 | z8 | z8 | z8 | z8 | %34
 z2 D,2 C,2 B,,2 | A,,2 G,,F,, E,,D,,E,,A,,, | B,,,D,, E,,4 E,,2- | E,,[A,,E,] [A,,E,]6- | %38
 [A,,E,]2 z2 z4 |] %39

